assets/svg/icon_block_repost.svg

<svg width="24" height="24" viewBox="0 0 24 24" fill="none" xmlns="http://www.w3.org/2000/svg">
<path d="M15.2513 18.0838C16.7858 18.0838 18.2299 17.5024 19.3171 16.445C20.3902 15.4052 21.0039 13.9634 20.9999 12.4905C20.9999 12.1315 20.6991 11.8389 20.33 11.8389C19.9609 11.8389 19.6601 12.1315 19.6601 12.4905C19.6601 13.6357 19.2007 14.7106 18.3683 15.5222C17.552 16.3202 16.4207 16.7786 15.2634 16.7786H8.04255L10.3873 14.496C10.5137 14.3731 10.5859 14.2112 10.5859 14.0356C10.5859 13.86 10.5177 13.6981 10.3913 13.5752C10.267 13.4523 10.0925 13.3821 9.91595 13.3821H9.91194C9.73343 13.3821 9.56294 13.4503 9.43657 13.5732L5.98461 16.9289C5.72586 17.1844 5.72586 17.598 5.98461 17.8536L9.53887 21.3087C9.66523 21.4316 9.83372 21.4999 10.0122 21.4999C10.1907 21.4999 10.3592 21.4316 10.4856 21.3107C10.614 21.1858 10.6842 21.0219 10.6842 20.8483C10.6842 20.6747 10.616 20.5108 10.4896 20.3879L8.12077 18.0838H15.2513Z" fill="#5A5E66"/>
<path d="M4.68286 7.55843C3.60776 8.59828 2.99398 10.0381 3 11.513C3 11.8719 3.30288 12.1646 3.67194 12.1646C3.85046 12.1646 4.01894 12.0963 4.14531 11.9734C4.27167 11.8505 4.34187 11.6866 4.34187 11.513C4.33987 10.3814 4.80922 9.2772 5.6336 8.47927C6.44996 7.68134 7.58122 7.22287 8.73856 7.22287H15.9594L13.6126 9.50547C13.4863 9.62837 13.4161 9.79225 13.4161 9.96589C13.4161 10.1395 13.4843 10.3034 13.6106 10.4263C13.739 10.5512 13.9075 10.6194 14.086 10.6194C14.2645 10.6194 14.433 10.5512 14.5594 10.4302L18.0133 7.0707C18.2721 6.81512 18.2721 6.40153 18.0133 6.14596L14.4611 2.69085C14.2003 2.43528 13.7731 2.43723 13.5103 2.69085C13.2496 2.94447 13.2476 3.35807 13.5103 3.61169L15.8812 5.9177H8.7506C7.21617 5.9177 5.772 6.49907 4.68487 7.55648L4.68286 7.55843Z" fill="#5A5E66"/>
</svg>

<svg xmlns="http://www.w3.org/2000/svg" width="24" height="24" fill="none"><path fill="#5A5E66" d="M15.251 18.084a5.8 5.8 0 0 0 4.066-1.639A5.52 5.52 0 0 0 21 12.491c0-.36-.3-.652-.67-.652s-.67.293-.67.652c0 1.145-.46 2.22-1.292 3.031a4.47 4.47 0 0 1-3.105 1.257h-7.22l2.344-2.283a.64.64 0 0 0 .004-.92.68.68 0 0 0-.475-.194h-.004a.68.68 0 0 0-.475.191L5.985 16.93a.65.65 0 0 0 0 .925l3.554 3.455a.683.683 0 0 0 .947.002.64.64 0 0 0 .004-.923l-2.37-2.304zM4.683 7.558A5.5 5.5 0 0 0 3 11.513c0 .359.303.652.672.652a.68.68 0 0 0 .473-.192.64.64 0 0 0 .197-.46 4.23 4.23 0 0 1 1.292-3.034 4.47 4.47 0 0 1 3.105-1.256h7.22l-2.346 2.282a.64.64 0 0 0-.002.921.683.683 0 0 0 .949.004l3.453-3.36a.65.65 0 0 0 0-.924l-3.552-3.455a.687.687 0 0 0-.95 0 .64.64 0 0 0 0 .92l2.37 2.307h-7.13a5.8 5.8 0 0 0-4.066 1.638z"/></svg>
